X:1
T:Shutter Hornpipe. JBi.81
L:1/8
Q:1/2=90
M:4/4
I:linebreak $
K:A
V:1 treble 
V:1
"^unedited,key unclear in ms" A2 AA ABcd | ecdB AcdB | B2 BB Bdfe | dcBA GBGE |$ A2 AA ABcd | %5
 ecdB A2 g2 | gbge aged | e2 ee e4 ::$ B2 BB B2 cd | ecBA GBGE | e2 ee e2 fg | bfed cecA |$ %12
 f2 d2 dfaf | e2 c2 ceae | fdec dBAG | A2 AA A2 :| %16
